X: 1592
T: Jim Hibbertson's Set Tune
B: australian traditional tunes wiki
M:2/4
L:1/16
R: Set Tune
Q: 1/4=100
K:D
V:1 
|:"D"D3F A2A2|"G"B2B2 "D"A4|"G"B3A "D"F2D2|"A7"F2E2E4|"D"D3F A2A2|"G"B2B2 "D"A4|"G"B3A "D"F2D2|"A7"F2E2D4:|
|:"D"d3c "G"B2A2|B2A2 "D"F2A2|"G"B3A "D"F2D2|"A7"F2E2E4|"D"d3c "G"B2A2|"G"B2A2 "D"F2A2|"A7"B3A B2c2|"D"d4d4:|
% abcbook-tune_id 6342d53a93ef8afd4fa199a4


% abcbook-boost 0
% abcbook-tablature 
% abcbook-transpose 
% abcbook-lastupdated 1665324372856
% abcbook-soundfonts 
% abcbook-repeats 1
% NFF Book 2007

